X: 030751
T: Come up in the Room (I Want You)
M: 4/4
L: 1/8
S: B.Flaherty
Z: B.Black
R: reel
K: G
dcBG DGBd|(3efg dg (3efg dB|dcBG DGBd|(3efg dc BG G2|
dcBG DGBd|(3efg dg efge|d2 BG DGBd|(3efg dc BG G2||
g2 bg egde|g2 ag ea a2|g2 bg egdB|dega bg g2|
g2 bg egde|g2 ag ea a2|g2 fg egdB|dega bg g2||
